justvector/wikipedia.svg

<?xml version="1.0" encoding="iso-8859-1"?>
<!-- Generator: Adobe Illustrator 15.0.0, SVG Export Plug-In . SVG Version: 6.00 Build 0)  -->
<!DOCTYPE svg PUBLIC "-//W3C//DTD SVG 1.1//EN" "http://www.w3.org/Graphics/SVG/1.1/DTD/svg11.dtd">
<svg version="1.1" id="Icons" xmlns="http://www.w3.org/2000/svg" xmlns:xlink="http://www.w3.org/1999/xlink" x="0px" y="0px"
	 width="100px" height="100px" viewBox="0 0 100 100" style="enable-background:new 0 0 100 100;" xml:space="preserve">
<path id="Wikipedia" d="M94.937,19c0,0-13.964,0-18.606,0L75,19.229v1.788c0,0.21,0.635,0.386,0.811,0.517
	c0.168,0.142,0.623,0.219,0.81,0.219l1.686,0.084c1.912,0.09,2.494,0.505,3.239,1.205c0.731,0.725,0.851,1.955,0.281,3.684
	L65.383,69.655l-0.628-0.187L54.308,45.97c0.152-0.353,0.243-0.551,0.243-0.551l8.552-17.578c0.995-1.854,1.958-3.511,2.447-4.283
	c0.893-1.408,1.328-1.674,3.763-1.797c0.497,0,0.688-0.244,0.688-0.738v-1.778l-0.125-0.191c0,0-10.224-0.035-14.879,0L55,19.237
	v1.779c0,0.217-0.12,0.39,0.045,0.521c0.176,0.142,0.25,0.215,0.439,0.215l0.697,0.089c1.903,0.09,2.754,0.636,3.013,0.979
	c0.455,0.615,0.667,1.271-0.434,3.911l-6.585,14.42l-5.951-13.376c-1.951-4.274-2.434-5.597,0.508-5.844l0.79-0.183
	c0.566,0,0.478-0.224,0.478-0.649v-1.87l-0.059-0.153c0,0-10.9,0-15.873,0.003L32,19.262v1.875c0,0.421,0.415,0.529,1.185,0.645
	c2.755,0.396,2.707,0.713,5.429,6.646c0.407,0.889,1.609,3.57,1.609,3.57l6.204,13.391c0,0,0.704,1.72,1.805,4.39l-9.016,19.763
	l-0.515-0.145c0,0-13.991-32.419-18.037-43.266c-0.426-1.117-0.611-1.953-0.611-2.468c0-1.102,0.904-1.699,2.712-1.779l2.751-0.099
	c0.563,0,1.484-0.236,1.484-0.727v-1.779l-0.829-0.184c0,0-17.14-0.021-20.602,0L5,19.279v1.872c0,0.336,0.448,0.545,1.227,0.634
	c2.129,0.129,3.559,0.499,4.229,1.123c0.668,0.628,1.393,2.215,2.333,4.688c5.087,13.424,15.902,37.38,21.166,51.026
	c1.513,3.723,3.424,4.303,5.733-0.117c2.379-4.848,7.178-15.609,10.679-23.552c3.275,7.924,7.734,18.644,9.885,23.501
	c1.712,3.887,3.665,4.271,5.646,0.116c5.183-12.654,20.32-50.736,20.32-50.736c0.654-1.869,1.568-3.309,2.746-4.355
	c1.169-1.033,2.909-1.617,5.349-1.731c0.494,0,0.688-0.249,0.688-0.731v-1.788L94.937,19z"/>
</svg>

<?xml version="1.0" encoding="UTF-8" standalone="no"?>
<!DOCTYPE svg PUBLIC "-//W3C//DTD SVG 1.1//EN" "http://www.w3.org/Graphics/SVG/1.1/DTD/svg11.dtd">
<svg width="100%" height="100%" viewBox="0 0 100 100" version="1.1" xmlns="http://www.w3.org/2000/svg" xmlns:xlink="http://www.w3.org/1999/xlink" xml:space="preserve" xmlns:serif="http://www.serif.com/" style="fill-rule:evenodd;clip-rule:evenodd;stroke-linejoin:round;stroke-miterlimit:2;">
    <path id="Wikipedia" d="M94.937,19L76.331,19L75,19.229L75,21.017C75,21.227 75.635,21.403 75.811,21.534C75.979,21.676 76.434,21.753 76.621,21.753L78.307,21.837C80.219,21.927 80.801,22.342 81.546,23.042C82.277,23.767 82.397,24.997 81.827,26.726L54.308,45.97C54.46,45.617 54.551,45.419 54.551,45.419L63.103,27.841C64.098,25.987 65.061,24.33 65.55,23.558C66.443,22.15 66.878,21.884 69.313,21.761C69.81,21.761 70.001,21.517 70.001,21.023L70.001,19.245L69.876,19.054C69.876,19.054 59.652,19.019 54.997,19.054L55,19.237L55,21.016C55,21.233 54.88,21.406 55.045,21.537C55.221,21.679 55.295,21.752 55.484,21.752L56.181,21.841C58.084,21.931 58.935,22.477 59.194,22.82C59.649,23.435 59.861,24.091 58.76,26.731L52.175,41.151L46.224,27.775C44.273,23.501 43.79,22.178 46.732,21.931L47.522,21.748C48.088,21.748 48,21.524 48,21.099L48,19.229L47.941,19.076C47.941,19.076 37.041,19.076 32.068,19.079L32,19.262L32,21.137C32,21.558 32.415,21.666 33.185,21.782C35.94,22.178 35.892,22.495 38.614,28.428C39.021,29.317 40.223,31.998 40.223,31.998L46.427,45.389C46.427,45.389 47.131,47.109 48.232,49.779C48.232,49.779 24.71,36.978 20.664,26.131C20.238,25.014 20.053,24.178 20.053,23.663C20.053,22.561 20.957,21.964 22.765,21.884L25.516,21.785C26.079,21.785 27,21.549 27,21.058L27,19.279L26.171,19.095C26.171,19.095 9.031,19.074 5.569,19.095L5,19.279L5,21.151C5,21.487 5.448,21.696 6.227,21.785C8.356,21.914 9.786,22.284 10.456,22.908C11.124,23.536 11.849,25.123 12.789,27.596C17.876,41.02 46.866,62.896 50.367,54.953C53.642,62.877 86.218,27.834 86.218,27.834C86.872,25.965 87.786,24.525 88.964,23.479C90.133,22.446 91.873,21.862 94.313,21.748C94.807,21.748 95.001,21.499 95.001,21.017L95.001,19.229L94.937,19Z" style="fill-rule:nonzero;"/>
</svg>
